tools/download-figma-icons/icons/outlined-large/build.svg

<svg width="64" height="64" viewBox="0 0 64 64" fill="none" xmlns="http://www.w3.org/2000/svg">
<path fill-rule="evenodd" clip-rule="evenodd" d="M63.92 10.56L63.95 10.65H63.92C63.95 10.76 63.97 10.88 63.97 11V37.51C63.97 38.04 63.69 38.53 63.23 38.8L52.23 45.3H52.22C52.13 45.35 52.04 45.38 51.95 45.41C51.938 45.414 51.926 45.4212 51.914 45.4284C51.896 45.4392 51.878 45.45 51.86 45.45C51.74 45.48 51.63 45.5 51.51 45.5H51.47H51.44C51.32 45.5 51.2 45.48 51.08 45.45C51.065 45.445 51.0475 45.4375 51.03 45.43C51.0125 45.4225 50.995 45.415 50.98 45.41C50.89 45.38 50.8 45.35 50.72 45.3H50.71L39.73 38.81C39.7266 38.8067 39.7233 38.8022 39.72 38.7978C39.7133 38.7889 39.7066 38.78 39.7 38.78C39.69 38.77 39.67 38.77 39.67 38.77L28.67 31.77C28.24 31.49 27.98 31.01 27.98 30.5V17.5C27.98 17.38 28 17.26 28.03 17.15C28.0333 17.14 28.0378 17.13 28.0422 17.12C28.0511 17.1 28.06 17.08 28.06 17.06L28.06 17.0599C28.09 16.98 28.12 16.9 28.16 16.82C28.17 16.805 28.1775 16.79 28.185 16.775C28.1925 16.76 28.2 16.745 28.21 16.73C28.27 16.64 28.33 16.56 28.4 16.48C28.41 16.47 28.42 16.45 28.42 16.45C28.5 16.36 28.6 16.29 28.7 16.23C28.71 16.22 28.73 16.21 28.73 16.21L39.73 9.71L50.73 3.21C51.21 2.93 51.79 2.93 52.26 3.21L63.25 9.71C63.26 9.72 63.28 9.73 63.28 9.73L63.28 9.73003C63.38 9.80002 63.48 9.87001 63.56 9.95C63.57 9.96 63.58 9.98 63.58 9.98C63.65 10.06 63.72 10.14 63.77 10.23C63.78 10.245 63.7875 10.26 63.795 10.275C63.8025 10.29 63.81 10.305 63.82 10.32C63.86 10.4 63.89 10.48 63.92 10.56ZM59.55 11.01L51.5 6.25V6.24L32.45 17.51L40.5 22.27L59.55 11.01ZM39 24.87L31 20.14V29.69L39 34.78V24.87ZM43.45 37.51L50 41.38V33.64L43.45 37.51ZM53 31.01V41.38L52.99 41.39L60.99 36.66V13.64L52.25 18.8L41.99 24.86V34.88L50.73 29.72C51.2 29.45 51.77 29.44 52.24 29.71C52.71 29.97 53 30.47 53 31.01ZM35.92 40.05L35.92 40.05H35.93C35.9333 40.06 35.9378 40.07 35.9422 40.08C35.9511 40.1 35.96 40.12 35.96 40.14C35.99 40.25 36.01 40.37 36.01 40.49V53.49C36.01 54.01 35.75 54.48 35.32 54.76L24.32 61.76C24.31 61.78 24.29 61.78 24.28 61.78C24.2183 61.8241 24.1411 61.8526 24.0689 61.8793C24.0591 61.8829 24.0495 61.8864 24.04 61.89C24.0124 61.8955 23.9878 61.9072 23.9645 61.9182C23.9458 61.9271 23.9279 61.9355 23.91 61.94C23.78 61.97 23.65 61.99 23.52 61.99H23.51H23.49C23.37 61.99 23.25 61.97 23.13 61.94C23.11 61.935 23.09 61.925 23.07 61.915C23.05 61.905 23.03 61.895 23.01 61.89C22.986 61.881 22.9621 61.8729 22.9384 61.8649C22.883 61.8462 22.829 61.828 22.78 61.8C22.77 61.8 22.76 61.79 22.76 61.79H22.74L0.74 48.79C0.28 48.52 0 48.03 0 47.5V21.5C0 21.32 0.03 21.15 0.09 20.99C0.04 20.84 0 20.67 0 20.5C0 19.97 0.28 19.48 0.74 19.21L11.71 12.71C12.19 12.43 12.77 12.43 13.24 12.71L24.24 19.21C24.25 19.22 24.27 19.23 24.27 19.23C24.37 19.3 24.47 19.37 24.55 19.45C24.56 19.46 24.57 19.48 24.57 19.48L24.57 19.48C24.64 19.56 24.71 19.64 24.76 19.73C24.77 19.745 24.7775 19.76 24.785 19.775C24.7925 19.79 24.8 19.805 24.81 19.82C24.85 19.9 24.88 19.98 24.91 20.06L24.91 20.06C24.9133 20.07 24.9178 20.08 24.9222 20.09C24.9311 20.11 24.94 20.13 24.94 20.15C24.97 20.26 24.99 20.38 24.99 20.5V33.14L35.25 39.2C35.26 39.21 35.28 39.22 35.28 39.22L35.28 39.22C35.38 39.29 35.48 39.36 35.56 39.44C35.57 39.45 35.58 39.47 35.58 39.47L35.58 39.47C35.65 39.55 35.72 39.63 35.77 39.72C35.78 39.735 35.7875 39.75 35.795 39.765C35.8025 39.78 35.81 39.795 35.82 39.81C35.86 39.89 35.89 39.97 35.92 40.05ZM15.45 40.5L23.5 45.26L31.55 40.5L23.5 35.74L15.45 40.5ZM22 23.13L14 27.86V37.88L22 33.15V23.13ZM20.55 20.51L12.5 15.75L4.45 20.51L12.5 25.27L20.55 20.51ZM11 27.87L3 23.14V46.64L22.01 57.88V47.86L11.75 41.8C11.74 41.79 11.72 41.78 11.72 41.78C11.62 41.71 11.52 41.64 11.44 41.56C11.43 41.55 11.42 41.53 11.42 41.53L11.42 41.53C11.35 41.45 11.28 41.37 11.23 41.28C11.22 41.265 11.2125 41.25 11.205 41.235C11.1975 41.22 11.19 41.205 11.18 41.19C11.14 41.11 11.11 41.03 11.08 40.95C11.0767 40.94 11.0722 40.93 11.0678 40.92C11.0589 40.9 11.05 40.88 11.05 40.86C11.02 40.75 11 40.63 11 40.51V27.87ZM25 47.87V57.78L33 52.69V43.14L25 47.87Z" fill="black"/>
</svg>

<svg xmlns="http://www.w3.org/2000/svg" width="64" height="64" fill="none" viewBox="0 0 64 64"><path fill="currentColor" fill-rule="evenodd" d="m63.92 10.56.03.09h-.03c.03.11.05.23.05.35v26.51c0 .53-.28 1.02-.74 1.29l-11 6.5h-.01c-.09.05-.18.08-.27.11a.2.2 0 0 0-.036.018c-.018.011-.036.022-.054.022-.12.03-.23.05-.35.05h-.07c-.12 0-.24-.02-.36-.05l-.05-.02-.05-.02c-.09-.03-.18-.06-.26-.11h-.01l-10.98-6.49-.01-.012q-.01-.016-.02-.018c-.01-.01-.03-.01-.03-.01l-11-7a1.52 1.52 0 0 1-.69-1.27v-13c0-.12.02-.24.05-.35l.012-.03a.2.2 0 0 0 .018-.06c.03-.08.06-.16.1-.24q.014-.023.025-.045.011-.023.025-.045c.06-.09.12-.17.19-.25.01-.01.02-.03.02-.03.08-.09.18-.16.28-.22.01-.01.03-.02.03-.02l11-6.5 11-6.5c.48-.28 1.06-.28 1.53 0l10.99 6.5a2 2 0 0 1 .31.24c.01.01.02.03.02.03a1.5 1.5 0 0 1 .215.295q.011.023.025.045c.04.08.07.16.1.24m-4.37.45L51.5 6.25v-.01L32.45 17.51l8.05 4.76zM39 24.87l-8-4.73v9.55l8 5.09zm4.45 12.64L50 41.38v-7.74zm9.55-6.5v10.37l-.01.01 8-4.73V13.64l-8.74 5.16-10.26 6.06v10.02l8.74-5.16c.47-.27 1.04-.28 1.51-.01.47.26.76.76.76 1.3m-17.08 9.04h.01l.012.03q.016.03.018.06c.03.11.05.23.05.35v13c0 .52-.26.99-.69 1.27l-11 7c-.01.02-.03.02-.04.02a1 1 0 0 1-.211.1l-.029.01q-.041.01-.075.028a.3.3 0 0 1-.055.022c-.13.03-.26.05-.39.05h-.03c-.12 0-.24-.02-.36-.05q-.03-.009-.06-.025a2 2 0 0 0-.132-.05c-.055-.019-.109-.037-.158-.065-.01 0-.02-.01-.02-.01h-.02l-22-13C.28 48.52 0 48.03 0 47.5v-26q0-.27.09-.51c-.05-.15-.09-.32-.09-.49 0-.53.28-1.02.74-1.29l10.97-6.5c.48-.28 1.06-.28 1.53 0l11 6.5a2 2 0 0 1 .31.24c.01.01.02.03.02.03.07.08.14.16.19.25q.014.022.025.045t.025.045c.04.08.07.16.1.24l.012.03q.017.03.018.06c.03.11.05.23.05.35v12.64l10.26 6.06a2 2 0 0 1 .31.24c.01.01.02.03.02.03a1.5 1.5 0 0 1 .215.295q.011.023.025.045c.04.08.07.16.1.24m-20.47.45 8.05 4.76 8.05-4.76-8.05-4.76zM22 23.13l-8 4.73v10.02l8-4.73zm-1.45-2.62-8.05-4.76-8.05 4.76 8.05 4.76zM11 27.87l-8-4.73v23.5l19.01 11.24V47.86L11.75 41.8a2 2 0 0 1-.31-.24.1.1 0 0 1-.02-.03 1.5 1.5 0 0 1-.19-.25q-.015-.023-.025-.045-.011-.023-.025-.045c-.04-.08-.07-.16-.1-.24l-.012-.03q-.016-.03-.018-.06c-.03-.11-.05-.23-.05-.35zm14 20v9.91l8-5.09v-9.55z" clip-rule="evenodd"/></svg>
